Newaita-dark/apps/22/fluid-demo.svg

<svg height="22" viewBox="0 0 22 22" width="22" xmlns="http://www.w3.org/2000/svg" xmlns:xlink="http://www.w3.org/1999/xlink"><linearGradient id="a"><stop offset="0" stop-opacity=".313726"/><stop offset=".222222" stop-opacity=".27451"/><stop offset="1" stop-opacity="0"/></linearGradient><radialGradient id="b" cx="450.908936" cy="189.579361" gradientTransform="matrix(.00000012 -.0537161 -.0966889 -.00000007 30.609667 43.721789)" gradientUnits="userSpaceOnUse" r="21.166656" xlink:href="#a"/><radialGradient id="c" cx="450.908936" cy="189.579361" gradientTransform="matrix(-.00000012 .0537161 .0966889 .00000007 -8.779457 -5.175144)" gradientUnits="userSpaceOnUse" r="21.166656" xlink:href="#a"/><radialGradient id="d" cx="450.908936" cy="189.579361" gradientTransform="matrix(-.00000012 -.0537161 .0966889 -.00000007 -8.779457 43.721789)" gradientUnits="userSpaceOnUse" r="21.166656" xlink:href="#a"/><radialGradient id="e" cx="450.908936" cy="189.579361" gradientTransform="matrix(.00000012 .0537161 -.0966889 .00000007 30.609666 -5.175144)" gradientUnits="userSpaceOnUse" r="21.166656" xlink:href="#a"/><linearGradient id="f" gradientTransform="matrix(.00918504 0 0 .0429729 8.569953 9.239164)" gradientUnits="userSpaceOnUse" x1="255.323059" x2="255.323044" y1="233.5" y2="254.666656"><stop offset="0" stop-opacity=".27451"/><stop offset="1" stop-opacity="0"/></linearGradient><linearGradient id="g" gradientUnits="userSpaceOnUse" x1="232.833328" x2="232.833328" y1="233.5" y2="-168.666656"><stop offset="0" stop-color="#ef5350"/><stop offset="1" stop-color="#e57373"/></linearGradient><linearGradient id="h" gradientUnits="userSpaceOnUse" x1="1.82952085252" x2="1.82952085252" y1=".99526020622" y2=".17887033502"><stop offset="0" stop-color="#e0e0e0"/><stop offset="1" stop-color="#eee"/></linearGradient><path d="m12.507812 19.273438h1.816407v-.910157h-1.816407zm0 0" fill="url(#b)"/><path d="m9.324219 19.273438h-1.820313v.910156h1.820313zm0 0" fill="url(#c)"/><path d="m9.324219 19.273438h-1.820313v-.910157h1.820313zm0 0" fill="url(#d)"/><path d="m12.507812 19.273438h1.816407v.910156h-1.816407zm0 0" fill="url(#e)"/><path d="m9.324219 19.046875h3.183593v1.136719h-3.183593zm0 0" fill="url(#f)"/><path d="m253.975747-168.640791c111.080301 0 201.071707 89.991407 201.071707 201.071708s-89.991406 201.071708-201.071707 201.071708c-110.989402 0-201.071708-89.991407-201.071708-201.071708s90.082306-201.071708 201.071708-201.071708zm0 0" fill="url(#g)" stroke="#333" stroke-linecap="round" stroke-width="3" transform="matrix(.0429729 0 0 .0429729 0 9.239163)"/><path d="m10.914062 19.273438c-4.785156 0-8.640624-3.855469-8.640624-8.640626 0-.027343 0-.058593 0-.085937.046874 4.75 3.882812 8.558594 8.640624 8.558594 4.761719 0 8.597657-3.808594 8.640626-8.558594v.085937c0 4.785157-3.851563 8.640626-8.640626 8.640626zm0 0" fill-opacity=".196078"/><path d="m10.914062 1.992188c-4.785156 0-8.640624 3.851562-8.640624 8.640624v.085938c.046874-4.75 3.882812-8.558594 8.640624-8.558594 4.761719 0 8.597657 3.808594 8.640626 8.558594 0-.03125 0-.058594 0-.085938 0-4.789062-3.851563-8.640624-8.640626-8.640624zm0 0" fill="#fff" fill-opacity=".392157"/><path d="m10.914062 1.925781c-4.820312 0-8.703124 3.882813-8.703124 8.707031 0 4.820313 3.882812 8.703126 8.703124 8.703126 4.824219 0 8.707032-3.882813 8.707032-8.703126 0-4.824218-3.882813-8.707031-8.707032-8.707031zm0 .128907c4.753907 0 8.578126 3.824218 8.578126 8.578124 0 4.75-3.824219 8.574219-8.578126 8.574219-4.75 0-8.574218-3.824219-8.574218-8.574219 0-4.753906 3.824218-8.578124 8.574218-8.578124zm0 0" fill="#212121"/><path d="m6.882812 6.6875 1.832032 2.914062-3.1875-.730468 4.3125 3.621094-.179688.195312-.09375.097656s.070313.191406.152344.417969l-2.636719 1.292969h3.109375l1.113282-.773438 2.628906-1.824218 1.191406-.824219-.164062-2.433594v-.15625l1.320312.15625-1.320312-1.417969-1.703126.257813-.300781.042969-.550781 1.347656-.328125.582031zm0 0" fill="url(#h)"/><path d="m6.882812 6.6875.324219.511719 4.871094 2.59375.328125-.582031.550781-1.34375.300781-.046876 1.703126-.257812.964843 1.035156.355469.042969-1.320312-1.417969-1.703126.257813-.300781.042969-.550781 1.347656-.328125.582031zm8.078126 2.140625v.152344l.140624 2.109375.023438-.015625-.152344-2.246094zm-9.433594.042969.558594.46875 2.628906.605468-.25-.398437zm4.136718 3.8125-.003906.003906-.09375.097656s.054688.144532.089844.246094l.003906-.003906.179688-.191406zm-.050781.570312-2.53125 1.242188h.695313l1.941406-.953125c-.054688-.15625-.078125-.21875-.105469-.289063zm0 0" fill="#fff" fill-opacity=".970968"/><path d="m6.882812 7.027344 1.582032 2.519531.25.054687-1.507813-2.402343zm8.078126 1.457031v.15625l.011718.1875 1.308594.152344-.355469-.382813zm-9.433594.726563 4.136718 3.472656.175782-.191406-3.75-3.152344zm9.574218 1.878906-1.167968.808594-2.628906 1.824218-1.113282.773438h-2.414062l-.695313.34375h3.109375l1.113282-.773438 2.628906-1.824218 1.191406-.828126zm-5.445312 1.941406-.089844.09375s.035156.097656.046875.128906l.105469-.050781c-.035156-.09375-.035156-.101563-.0625-.171875zm0 0" fill-opacity=".235294"/><path d="m605.353599 588.175779 161.129916 256.296199-280.34544-64.24583 379.290889 318.480665-15.803787 17.178029-8.245454 8.589015s6.184091 16.834469 13.398863 36.760983l-231.903397 113.718555h273.474228l97.914768-68.024997 231.216276-160.442794 104.785979-72.491285-14.429545-214.038246v-13.742424l116.123479 13.742424-116.123479-124.712493-149.792416 22.674998-26.454165 3.779167-48.442043 118.528403-28.85909 51.190527zm0 0" fill="none" stroke="#212121" stroke-width="11.338582" transform="matrix(.0113699 0 0 .0113699 .000002 -.000001)"/></svg>

<?xml version="1.0" encoding="UTF-8"?>
<svg xmlns="http://www.w3.org/2000/svg" xmlns:xlink="http://www.w3.org/1999/xlink" width="22px" height="22px" viewBox="0 0 22 22" version="1.1">
<defs>
<radialGradient id="radial0" gradientUnits="userSpaceOnUse" cx="450.908936" cy="189.579361" fx="450.908936" fy="189.579361" r="21.166656" gradientTransform="matrix(0.000000119742,-0.0537161,-0.0966889,-0.0000000698078,30.609667,43.721789)">
<stop offset="0" style="stop-color:rgb(0%,0%,0%);stop-opacity:0.313726;"/>
<stop offset="0.222222" style="stop-color:rgb(0%,0%,0%);stop-opacity:0.27451;"/>
<stop offset="1" style="stop-color:rgb(0%,0%,0%);stop-opacity:0;"/>
</radialGradient>
<radialGradient id="radial1" gradientUnits="userSpaceOnUse" cx="450.908936" cy="189.579361" fx="450.908936" fy="189.579361" r="21.166656" gradientTransform="matrix(-0.000000119742,0.0537161,0.0966889,0.0000000698078,-8.779457,-5.175144)">
<stop offset="0" style="stop-color:rgb(0%,0%,0%);stop-opacity:0.313726;"/>
<stop offset="0.222222" style="stop-color:rgb(0%,0%,0%);stop-opacity:0.27451;"/>
<stop offset="1" style="stop-color:rgb(0%,0%,0%);stop-opacity:0;"/>
</radialGradient>
<radialGradient id="radial2" gradientUnits="userSpaceOnUse" cx="450.908936" cy="189.579361" fx="450.908936" fy="189.579361" r="21.166656" gradientTransform="matrix(-0.000000119742,-0.0537161,0.0966889,-0.0000000698078,-8.779457,43.721789)">
<stop offset="0" style="stop-color:rgb(0%,0%,0%);stop-opacity:0.313726;"/>
<stop offset="0.222222" style="stop-color:rgb(0%,0%,0%);stop-opacity:0.27451;"/>
<stop offset="1" style="stop-color:rgb(0%,0%,0%);stop-opacity:0;"/>
</radialGradient>
<radialGradient id="radial3" gradientUnits="userSpaceOnUse" cx="450.908936" cy="189.579361" fx="450.908936" fy="189.579361" r="21.166656" gradientTransform="matrix(0.000000119742,0.0537161,-0.0966889,0.0000000698078,30.609666,-5.175144)">
<stop offset="0" style="stop-color:rgb(0%,0%,0%);stop-opacity:0.313726;"/>
<stop offset="0.222222" style="stop-color:rgb(0%,0%,0%);stop-opacity:0.27451;"/>
<stop offset="1" style="stop-color:rgb(0%,0%,0%);stop-opacity:0;"/>
</radialGradient>
<linearGradient id="linear0" gradientUnits="userSpaceOnUse" x1="255.323059" y1="233.5" x2="255.323044" y2="254.666656" gradientTransform="matrix(0.00918504,0,0,0.0429729,8.569953,9.239164)">
<stop offset="0" style="stop-color:rgb(0%,0%,0%);stop-opacity:0.27451;"/>
<stop offset="1" style="stop-color:rgb(0%,0%,0%);stop-opacity:0;"/>
</linearGradient>
<linearGradient id="linear1" gradientUnits="userSpaceOnUse" x1="232.833328" y1="233.5" x2="232.833328" y2="-168.666656" >
<stop offset="0" style="stop-color:rgb(93.725491%,32.549021%,31.37255%);stop-opacity:1;"/>
<stop offset="1" style="stop-color:rgb(89.803922%,45.09804%,45.09804%);stop-opacity:1;"/>
</linearGradient>
<linearGradient id="linear2" gradientUnits="userSpaceOnUse" x1="160.908966" y1="87.534737" x2="160.908966" y2="15.732006" gradientTransform="matrix(0.0113699,0,0,0.0113699,0.00000178773,-0.000000591982)">
<stop offset="0" style="stop-color:rgb(87.843138%,87.843138%,87.843138%);stop-opacity:1;"/>
<stop offset="1" style="stop-color:rgb(93.333334%,93.333334%,93.333334%);stop-opacity:1;"/>
</linearGradient>
</defs>
<g id="surface1">
<path style=" stroke:none;fill-rule:nonzero;fill:url(#radial0);" d="M 12.507812 19.273438 L 14.324219 19.273438 L 14.324219 18.363281 L 12.507812 18.363281 Z M 12.507812 19.273438 "/>
<path style=" stroke:none;fill-rule:nonzero;fill:url(#radial1);" d="M 9.324219 19.273438 L 7.503906 19.273438 L 7.503906 20.183594 L 9.324219 20.183594 Z M 9.324219 19.273438 "/>
<path style=" stroke:none;fill-rule:nonzero;fill:url(#radial2);" d="M 9.324219 19.273438 L 7.503906 19.273438 L 7.503906 18.363281 L 9.324219 18.363281 Z M 9.324219 19.273438 "/>
<path style=" stroke:none;fill-rule:nonzero;fill:url(#radial3);" d="M 12.507812 19.273438 L 14.324219 19.273438 L 14.324219 20.183594 L 12.507812 20.183594 Z M 12.507812 19.273438 "/>
<path style=" stroke:none;fill-rule:nonzero;fill:url(#linear0);" d="M 9.324219 19.046875 L 12.507812 19.046875 L 12.507812 20.183594 L 9.324219 20.183594 Z M 9.324219 19.046875 "/>
<path style="fill-rule:nonzero;fill:url(#linear1);stroke-width:3;stroke-linecap:round;stroke-linejoin:miter;stroke:rgb(20%,20%,20%);stroke-opacity:1;stroke-miterlimit:4;" d="M 253.975747 -168.640791 C 365.056048 -168.640791 455.047454 -78.649384 455.047454 32.430917 C 455.047454 143.511218 365.056048 233.502625 253.975747 233.502625 C 142.986345 233.502625 52.904039 143.511218 52.904039 32.430917 C 52.904039 -78.649384 142.986345 -168.640791 253.975747 -168.640791 Z M 253.975747 -168.640791 " transform="matrix(0.0429729,0,0,0.0429729,0,9.239163)"/>
<path style=" stroke:none;fill-rule:nonzero;fill:rgb(0%,0%,0%);fill-opacity:0.196078;" d="M 10.914062 19.273438 C 6.128906 19.273438 2.273438 15.417969 2.273438 10.632812 C 2.273438 10.605469 2.273438 10.574219 2.273438 10.546875 C 2.320312 15.296875 6.15625 19.105469 10.914062 19.105469 C 15.675781 19.105469 19.511719 15.296875 19.554688 10.546875 C 19.554688 10.574219 19.554688 10.605469 19.554688 10.632812 C 19.554688 15.417969 15.703125 19.273438 10.914062 19.273438 Z M 10.914062 19.273438 "/>
<path style=" stroke:none;fill-rule:nonzero;fill:rgb(100%,100%,100%);fill-opacity:0.392157;" d="M 10.914062 1.992188 C 6.128906 1.992188 2.273438 5.84375 2.273438 10.632812 C 2.273438 10.660156 2.273438 10.6875 2.273438 10.71875 C 2.320312 5.96875 6.15625 2.160156 10.914062 2.160156 C 15.675781 2.160156 19.511719 5.96875 19.554688 10.71875 C 19.554688 10.6875 19.554688 10.660156 19.554688 10.632812 C 19.554688 5.84375 15.703125 1.992188 10.914062 1.992188 Z M 10.914062 1.992188 "/>
<path style=" stroke:none;fill-rule:nonzero;fill:rgb(12.941177%,12.941177%,12.941177%);fill-opacity:1;" d="M 10.914062 1.925781 C 6.09375 1.925781 2.210938 5.808594 2.210938 10.632812 C 2.210938 15.453125 6.09375 19.335938 10.914062 19.335938 C 15.738281 19.335938 19.621094 15.453125 19.621094 10.632812 C 19.621094 5.808594 15.738281 1.925781 10.914062 1.925781 Z M 10.914062 2.054688 C 15.667969 2.054688 19.492188 5.878906 19.492188 10.632812 C 19.492188 15.382812 15.667969 19.207031 10.914062 19.207031 C 6.164062 19.207031 2.339844 15.382812 2.339844 10.632812 C 2.339844 5.878906 6.164062 2.054688 10.914062 2.054688 Z M 10.914062 2.054688 "/>
<path style=" stroke:none;fill-rule:nonzero;fill:url(#linear2);" d="M 6.882812 6.6875 L 8.714844 9.601562 L 5.527344 8.871094 L 9.839844 12.492188 L 9.660156 12.6875 L 9.566406 12.785156 C 9.566406 12.785156 9.636719 12.976562 9.71875 13.203125 L 7.082031 14.496094 L 10.191406 14.496094 L 11.304688 13.722656 L 13.933594 11.898438 L 15.125 11.074219 L 14.960938 8.640625 L 14.960938 8.484375 L 16.28125 8.640625 L 14.960938 7.222656 L 13.257812 7.480469 L 12.957031 7.523438 L 12.40625 8.871094 L 12.078125 9.453125 Z M 6.882812 6.6875 "/>
<path style=" stroke:none;fill-rule:nonzero;fill:rgb(100%,100%,100%);fill-opacity:0.970968;" d="M 6.882812 6.6875 L 7.207031 7.199219 L 12.078125 9.792969 L 12.40625 9.210938 L 12.957031 7.867188 L 13.257812 7.820312 L 14.960938 7.5625 L 15.925781 8.597656 L 16.28125 8.640625 L 14.960938 7.222656 L 13.257812 7.480469 L 12.957031 7.523438 L 12.40625 8.871094 L 12.078125 9.453125 Z M 14.960938 8.828125 L 14.960938 8.980469 L 15.101562 11.089844 L 15.125 11.074219 L 14.972656 8.828125 Z M 5.527344 8.871094 L 6.085938 9.339844 L 8.714844 9.945312 L 8.464844 9.546875 Z M 9.664062 12.683594 L 9.660156 12.6875 L 9.566406 12.785156 C 9.566406 12.785156 9.621094 12.929688 9.65625 13.03125 L 9.660156 13.027344 L 9.839844 12.835938 Z M 9.613281 13.253906 L 7.082031 14.496094 L 7.777344 14.496094 L 9.71875 13.542969 C 9.664062 13.386719 9.640625 13.324219 9.613281 13.253906 Z M 9.613281 13.253906 "/>
<path style=" stroke:none;fill-rule:nonzero;fill:rgb(0%,0%,0%);fill-opacity:0.235294;" d="M 6.882812 7.027344 L 8.464844 9.546875 L 8.714844 9.601562 L 7.207031 7.199219 Z M 14.960938 8.484375 L 14.960938 8.640625 L 14.972656 8.828125 L 16.28125 8.980469 L 15.925781 8.597656 Z M 5.527344 9.210938 L 9.664062 12.683594 L 9.839844 12.492188 L 6.089844 9.339844 Z M 15.101562 11.089844 L 13.933594 11.898438 L 11.304688 13.722656 L 10.191406 14.496094 L 7.777344 14.496094 L 7.082031 14.839844 L 10.191406 14.839844 L 11.304688 14.066406 L 13.933594 12.242188 L 15.125 11.414062 Z M 9.65625 13.03125 L 9.566406 13.125 C 9.566406 13.125 9.601562 13.222656 9.613281 13.253906 L 9.71875 13.203125 C 9.683594 13.109375 9.683594 13.101562 9.65625 13.03125 Z M 9.65625 13.03125 "/>
<path style="fill:none;stroke-width:11.338582;stroke-linecap:butt;stroke-linejoin:miter;stroke:rgb(12.941177%,12.941177%,12.941177%);stroke-opacity:1;stroke-miterlimit:4;" d="M 605.353599 588.175779 L 766.483515 844.471978 L 486.138075 780.226148 L 865.428964 1098.706813 L 849.625177 1115.884842 L 841.379723 1124.473857 C 841.379723 1124.473857 847.563814 1141.308326 854.778586 1161.23484 L 622.875189 1274.953395 L 896.349417 1274.953395 L 994.264185 1206.928398 L 1225.480461 1046.485604 L 1330.26644 973.994319 L 1315.836895 759.956073 L 1315.836895 746.213649 L 1431.960374 759.956073 L 1315.836895 635.24358 L 1166.044479 657.918578 L 1139.590314 661.697745 L 1091.148271 780.226148 L 1062.289181 831.416675 Z M 605.353599 588.175779 " transform="matrix(0.0113699,0,0,0.0113699,0.00000178773,-0.000000591982)"/>
</g>
</svg>
